X:1
T:24 Arie Antiche
T:Amarilli, mia bella
T:Amarilli, mia bella
T:Giulio Caccini (1546-1618) Alessandro Parisotti (1853-1913)
T:(24 Arie Antiche) Madrigal
T:Low voices
T:Creative Commons copyright waiver (CC0 1.0 Universal)
T:Creative Commons copyright waiver (CC0 1.0 Universal)
T:Creative Commons copyright waiver (CC0 1.0 Universal)
T:Creative Commons copyright waiver (CC0 1.0 Universal)
T:Creative Commons copyright waiver (CC0 1.0 Universal)
C:Giulio Caccini (1546-1618)
Z:Creative Commons copyright waiver (CC0 1.0 Universal)
%%score ( 1 2 ) { ( 3 4 ) | ( 5 6 ) }
L:1/8
Q:1/4=66
M:4/4
K:Ab
V:1 treble nm="Voice"
V:2 treble 
V:3 treble nm="Piano"
V:4 treble 
V:5 bass 
V:6 bass 
V:1
"^Moderato Affettuoso"!p! c6 G2 | A4 =E2 F2 | G4 !breath!G2 (c2 | B2 G2 !>!B3 A | %4
w: A- ma-|ril- li, mia|bel- la, non|cre- di,o del mio|
 !breath!G4)!f![Q:1/4=66] !>!c4- | c2 B A B4 | !breath!A4 (!>!c4- | c2 B2 A4- | %8
w: cor dol    \--|* ce de- si-|o, d'es-|* ser tu|
 !breath!A2)!>(! G G!>)! G4 | F8 |!mf![Q:1/4=72] !>!A6!>(! G F!>)! | G4 z!<(! =E E F | %12
w: _ l'a- mor mi-|o?|Cre- di lo|pur: e se ti-|
[Q:1/4=74] G2 =E2 (F4{G)}!<)! |[Q:1/4=76]!>(! G8!>)! |[Q:1/4=74] A3 F G2 F =E | %15
w: mor t'as- sa-|le,|du- bi- tar non- ti|
!<(! (F4{G)}!<)! !breath!G4 |!f! !>!c6 B A |!>(! G4 !breath!G[Q:1/4=65] =E E F!>)! | %18
w: va- le.|A- pri- miil|pet- to e ve- drai|
!p! G2 _E2 =D4 | C4 z2 (=E E | (F6 =E/F/G) | =E4) z2 (G G |"^cresc." (=A2!<(! B4{AB} A/G/A)!<)! | %23
w: scrit- to.in co-|re: A- ma-|ril- \-- * *|li, A- ma-|ril _ _ _ _|
"^più cresc."!<(! B4) z2 =B!<)! B |!f![Q:1/4=58] !>!c4 c2[Q:1/4=54] !breath!A F | %25
w: li, A- ma-|ril- li èil mioa|
 (G8{F)}[Q:1/4=70] |"^a tempo"[Q:1/4=78] F8 |!mf! !>!A6 G F | G4 z!<(! =E E F | %29
w: mo-|re.|Cre- di- lo|pur: e se ti-|
 G2 =E2 (F4{G)}!<)! | G8 |[Q:1/4=76] A3 F G2 F =E |!<(! (F4{/G)} G4!<)! |!f! !>!c6 B A | %34
w: mor t'as- sa-|le,|du- bit- tar non ti|va- le.|A- pri- miil|
[Q:1/4=72] G4 !breath!G =E E!p! F | G2[Q:1/4=66] _E2 =D4 | C4 z2[Q:1/4=64]!pp! (=E E | %37
w: pet- to e ve- drai|scrit- toin co-|re: A- ma-|
 (F6 (=E/F/G)) | =E4) z2 (G G | ((=A2!<(! B4){AB} (A/G/!<)!A)) | B4) z2[Q:1/4=62]!<(! =B B!<)! | %41
w: ril- \-- * *|li, A- ma-|ril- * \-- * *|li, A- ma-|
 c4 !breath!c2 A F |[Q:1/4=60] (G8{F)} |[Q:1/4=52] !breath!F4!ppp! c2!<(! c2!<)! | %44
w: ril- li èil mioa-|mo-|re, A- ma-|
[Q:1/4=50] (!>!=d4- dc/B/ =A>B) |[Q:1/4=48] c4- c z[Q:1/4=46] B3/2 =A/ | %46
w: ril _ _ _ _ _|li _ èil mioa-|
!<(! (=A>BA>B[Q:1/4=44] c/!<)!!>(!A/B/G/{/B} A/G/A/!>)!F/ | G4-[Q:1/4=40] G7/2 F/) | !fermata!F8 |] %49
w: mo- * * * \-- * * * \-- * * *|\-- * *|re.|
V:2
 x8 | x8 | x8 | x8 | x8 | x2 (BA) x4 | x8 | x8 | x8 | x8 | x8 | x8 | x8 | x8 | x8 | x8 | x8 | x8 | %18
 x8 | x8 | x8 | x8 | x8 | x8 | x8 | x8 | x8 | x8 | x8 | x8 | x8 | x8 | x8 | x8 | x8 | x8 | x8 | %37
 x8 | x8 | x8 | x8 | x8 | x8 | x8 | x8 | x8 | x8 | x8 | x8 |] %49
V:3
!p! (F4 =E4 | [CF]4 [C=E]2 [B,F]2- | F2 =E=D E2) (G2 | G2 G2 !>!B3 A | [CEG]4)!f! !>![CEc-]4 | %5
 c2 BA B4 | A6 !>![CGc-]2 | c2 B2 A4- | A2!>(! (GF)!>)! (F2 =EB | A2 F2) C2 A,2 |!mf! (!>!A6 GF | %11
 F2 =E=D E2) (EF | G2 =E2 F4- | F2 =E2) [B,C]2 [B,CE]2 | ([A,CF]4 [G,C=E]4) | ([A,CF]4 [G,C=E]4) | %16
!f! z2 ([A,C_E]2 [CEA]2 [B,G][A,F] | F2)!>(! (=E=D E4)!>)! |!p! (E2 G2 =D3 F) | %19
 [G,CE]2!>(! (.[CGc]2 .[C=EG]2!>)! .[G,CE]2) |!pp! [A,CF]2!>(! (.[FAc]2 .[CFA]2 .[A,CF]2)!>)! | %21
 [G,C=E]2!>(! (.[Gc=e]2 .[EGc]2 .[CEG]2)!>)! |!<(! =A2 (B4 A2)!<)! | [=DFB]4 [DG=B]4 | %24
!f! (!>!c2 B2 A4) | G7 B |!p! [CFA]2"^a tempo" ([F,A,]2 [A,C]2 [A,CF]2) | (!>!A6 B,2- | %28
 F2 =E=D) E2 (EF | [=EG]2) E2 F4- | F2 =E2 [B,C]2 [B,CE]2 | ([A,CF]4 [G,C=E]4) | %32
!<(! ([A,CF]4 [G,C=E]4)!<)! |!f! z2 ([A,C_E]2 [CEA]2 [B,G][A,F] |!>(! F2) (=E=D E4)!>)! | %35
!>(! (_E2 G2 =D3 F!>)! | [G,CE]2) (.[CGc]2 .[C=EG]2 .[G,CE]2) | %37
 [A,CF]2!>(! (.[FAc]2 .[CFA]2!>)! .[A,CF]2) | [G,C=E]2 (.[Gc=e]2 .[EGc]2 .[CEG]2) | %39
 =A2!<(! (B4 A2) | [=DFB]4!<)! [DG=B]4 | (!>!c2 _B2!>(! A4) | (G7!>)! B) | %43
!ppp! [CF=A]4 (.[FAc]2 .[FAc]2 | [FB=d]8) | [CFc]6 [CGB]2 | [C-F-=A]8 | [C-FG-]4 ([=EG]4 | %48
 !fermata![=A,CF]8) |] %49
V:4
 C8- | x8 | B,2 B,4 [B,-=E]2 | [B,_E]2 [B,E]2 [EG]2 [CF]2 | x8 | D8 | C2- ED C2 x2 | [CF]4 _E2 DE | %8
 F2 D2 (C4 | C4) A,2 F,2 | z2!>(! C4!>)! B,2- | B,2 !>!B,4 B,2- | [B,=E]2 !>!B,4 B,2 | B,4 x4 | %14
 x8 | x8 | x6 D2 | [G,C]8 | C6 =B,2 | z8 | x8 | x8 | [CF]2 [=DF-]2 [CF]4 | x8 | [CG]4 [CF]4 | %25
 [CF]6 [C=E]2 | x8 | z2 C4 GF | B,2 B,4 B,2- | B,2 !>!B,4 B,2- | B,4 x4 | x8 | x8 | x6 D2 | %34
 [G,C]8 | C6 =B,2 | z8 | x8 | x8 | [CF]2 [=DF]2 [CF]4 | x8 | [CG]4 [CF]4 | [CF]6 [C=E]2 | x8 | x8 | %45
 x8 | x8 | x4 C2 B,2 | x8 |] %49
V:5
"^dolcissimo e legato sempre" [F,A,]4 [C,G,]4 | [F,,C,F,]4 [C,G,]2 [D,F,]2 | [C,G,]6 [C,G,]2 | %3
 [_E,G,]6 F,2 | C,2 B,,2 (A,2 G,2 | F,2) A,4 G,2 | A,6 G,2 | A,8- | A,2 B,2 G,4 | [F,,F,]8 | F,8 | %11
 G,8 | G,4 F,4 | G,8 | (F,,2 F,2) (C,2 C,,2) |!<(! (F,,2 F,2) (C,2!<)! B,,2) | A,,6 B,,2 | %17
 C,4 C,,4 |"^smorz." G,8 |"^dolce" [C,,C,]4 C,4 | (F,4 F,,4 | C,,4) (C,4 |"^cresc." F,4) F,,4 | %23
"^più cresc." (B,,2 _A,,2 G,,2 F,,2) | (=E,,4 F,,2) F,2 | C,8- |"^dolce" [F,,C,]8 | F,8 | !>!G,8 | %29
 (C,4 D,4 | C,4 C,,4) | (F,,2 F,2) (C,2 C,,2) | (F,,2 F,2) (C,2 B,,2) | A,,6 B,,2 | (C,4 C,,4) | %35
!p! G,8 |!pp! [C,,C,]4 (C,4 | F,4 F,,4 | C,,4) (C,4 | F,4 F,,4) | (B,,2 _A,,2 G,,2 F,,2) | %41
!f! (=E,,4 F,,2) F,2 | (C,2 G,,2 C,,4) | (F,,2 C,2 F,4) | (B,,,4 F,4) | (=A,,,2 F,,2 F,2) z2 | %46
 F,,4 (!>!F,4 | [C,-G,]4) [C,,C,-]4 | !fermata![F,,C,]8 |] %49
V:6
 x8 | x8 | x8 | x8 | x4 A,,4 | D,4 E,4 | A,,6 =E,2 | F,4 C,4 | D,2 B,,2 C,4 | x8 | F,4 D,4 | %11
 (C,2 G,,2 C,,4) | C,4 D,4 | C,4 C,,4 | x8 | x8 | x8 | x8 | C,4 G,,4 | x8 | x8 | x8 | x8 | x8 | %24
 x8 | (C,2 G,,2 C,,4) | x8 | F,4 D,4 | (C,2 G,,2 C,,4) | x8 | x8 | x8 | x8 | x8 | x8 | C,4 G,,4 | %36
 x8 | x8 | x8 | x8 | x8 | x8 | x8 | x8 | B,,,2 F,,2 x4 | =A,,,6 =E,,2 | x8 | x8 | x8 |] %49

